src/assets/button-visible-icon-white.svg

<?xml version="1.0" encoding="UTF-8" standalone="no"?>
<svg
   height="36"
   width="36"
   version="1.1"
   id="svg1122"
   sodipodi:docname="button-visible-icon-white.svg"
   inkscape:version="1.2 (dc2aedaf03, 2022-05-15)"
   xmlns:inkscape="http://www.inkscape.org/namespaces/inkscape"
   xmlns:sodipodi="http://sodipodi.sourceforge.net/DTD/sodipodi-0.dtd"
   xmlns="http://www.w3.org/2000/svg"
   xmlns:svg="http://www.w3.org/2000/svg">
  <defs
     id="defs1126" />
  <sodipodi:namedview
     id="namedview1124"
     pagecolor="#ffffff"
     bordercolor="#666666"
     borderopacity="1.0"
     inkscape:showpageshadow="2"
     inkscape:pageopacity="0.0"
     inkscape:pagecheckerboard="0"
     inkscape:deskcolor="#d1d1d1"
     showgrid="false"
     inkscape:zoom="5.6527778"
     inkscape:cx="-23.085995"
     inkscape:cy="44.04914"
     inkscape:window-width="1920"
     inkscape:window-height="1011"
     inkscape:window-x="0"
     inkscape:window-y="0"
     inkscape:window-maximized="1"
     inkscape:current-layer="svg1122" />
  <path
     fill="currentColor"
     d="M 33.42857,18 Q 30.375,13.25893 25.77455,10.90848 27,12.99777 27,15.42857 27,19.14509 24.35826,21.78683 21.71652,24.42857 18,24.42857 q -3.71652,0 -6.35826,-2.64174 Q 9,19.14509 9,15.42857 9,12.99777 10.22545,10.90848 5.625,13.25893 2.57143,18 5.2433,22.1183 9.27121,24.55915 13.29911,27 18,27 22.70089,27 26.72879,24.55915 30.7567,22.1183 33.42857,18 Z M 18.96429,10.28571 q 0,-0.40178 -0.28125,-0.68303 Q 18.40179,9.32143 18,9.32143 q -2.51116,0 -4.30915,1.79799 -1.79799,1.79799 -1.79799,4.30915 0,0.40179 0.28125,0.68304 0.28125,0.28125 0.68303,0.28125 0.40179,0 0.68304,-0.28125 0.28125,-0.28125 0.28125,-0.68304 0,-1.72768 1.22544,-2.95312 Q 16.27232,11.25 18,11.25 q 0.40179,0 0.68304,-0.28125 0.28125,-0.28125 0.28125,-0.68304 z M 36,18 q 0,0.68303 -0.40179,1.38616 -2.8125,4.62054 -7.56361,7.4029 -4.75112,2.78237 -10.0346,2.78237 -5.28348,0 -10.0346,-2.79241 Q 3.21429,23.98661 0.40179,19.38616 0,18.68303 0,18 0,17.31696 0.40179,16.61384 3.21429,12.01339 7.9654,9.22098 12.71652,6.42857 18,6.42857 q 5.28348,0 10.0346,2.79241 4.75111,2.79241 7.56361,7.39286 Q 36,17.31696 36,18 Z"
     id="path274"
     style="font-variation-settings:normal;opacity:1;vector-effect:none;fill:#ffffff;fill-opacity:1;stroke-width:2;stroke-linecap:butt;stroke-linejoin:miter;stroke-miterlimit:4;stroke-dasharray:none;stroke-dashoffset:0;stroke-opacity:1;-inkscape-stroke:none;stop-color:#000000;stop-opacity:1" />
</svg>

<svg height="36" width="36" xmlns="http://www.w3.org/2000/svg"><path fill="currentColor" d="M33.429 18q-3.054-4.741-7.654-7.092Q27 12.998 27 15.428q0 3.717-2.642 6.359-2.641 2.642-6.358 2.642-3.717 0-6.358-2.642Q9 19.145 9 15.429q0-2.431 1.225-4.52-4.6 2.35-7.654 7.091 2.672 4.118 6.7 6.56Q13.3 27 18 27q4.7 0 8.729-2.44 4.028-2.442 6.7-6.56Zm-14.465-7.714q0-.402-.281-.683-.281-.282-.683-.282-2.511 0-4.31 1.798-1.797 1.798-1.797 4.31 0 .401.281.683.281.28.683.28t.683-.28q.281-.282.281-.683 0-1.728 1.226-2.954Q16.272 11.25 18 11.25q.402 0 .683-.281t.281-.683zM36 18q0 .683-.402 1.386-2.812 4.62-7.563 7.403Q23.283 29.571 18 29.571T7.965 26.78q-4.75-2.792-7.563-7.393Q0 18.683 0 18t.402-1.386q2.812-4.6 7.563-7.393Q12.717 6.429 18 6.429T28.035 9.22q4.75 2.792 7.563 7.393Q36 17.317 36 18Z" style="font-variation-settings:normal;opacity:1;vector-effect:none;fill:#fff;fill-opacity:1;stroke-width:2;stroke-linecap:butt;stroke-linejoin:miter;stroke-miterlimit:4;stroke-dasharray:none;stroke-dashoffset:0;stroke-opacity:1;-inkscape-stroke:none;stop-color:#000;stop-opacity:1"/></svg>
